X:53
T:Ha kimegyek a nényei nagy hegyre
O:Lukanénye (Nógrád)
Q:"Allegretto"
L:1/4
K:F
A A d c | G/G/A/F/ | E<D D z | 
d c e d | G/G/A/B/ | c<A A z | 
d c e d | G/G/A/B/ | c/AB/ A/F/ D | 
A<A d<c | A/A/G/F/ | E<D D z |

